.local/share/icons/Gruvbox-Plus-Dark/mimetypes/scalable/application-typescript.svg

<svg width="256" height="256" viewBox="0 0 256 256" fill="none" xmlns="http://www.w3.org/2000/svg">
<g opacity="0.4" filter="url(#filter0_f)">
<path d="M55.0839 15.5636H155.608L216.009 75.7129L216.011 224.609C216.011 233.52 208.749 240.737 199.838 240.737H55.0838C46.1734 240.737 39 233.564 39 224.654V31.6474C39 22.737 46.1734 15.5636 55.0838 15.5636H55.0839Z" fill="#282828"/>
</g>
<path d="M55.0839 15H155.608L216.009 75.1493L216.011 224.045C216.011 232.956 208.749 240.174 199.838 240.174H55.0838C46.1734 240.174 39 233 39 224.09V31.0838C39 22.1734 46.1734 15 55.0838 15H55.0839Z" fill="#ebdbb2"/>
<path d="M168.387 91.6671C172.732 92.7008 176.044 94.5299 179.086 97.5196C180.661 99.1143 182.997 102.027 183.188 102.723C183.24 102.93 175.801 107.668 171.294 110.324C171.132 110.427 170.476 109.759 169.743 108.725C167.545 105.689 165.236 104.371 161.709 104.141C156.522 103.806 153.181 106.381 153.205 110.685C153.205 111.949 153.4 112.695 153.942 113.725C155.08 115.969 157.198 117.306 163.851 120.038C176.097 125.038 181.341 128.339 184.597 133.027C188.237 138.253 189.051 146.603 186.581 152.817C183.868 159.565 177.13 164.153 167.654 165.675C164.722 166.163 157.773 166.086 154.619 165.544C147.751 164.384 141.235 161.163 137.214 156.936C135.639 155.288 132.573 150.984 132.759 150.676C132.84 150.573 133.549 150.162 134.339 149.723C135.096 149.312 137.975 147.741 140.692 146.246L145.604 143.54L146.637 144.981C148.075 147.068 151.225 149.927 153.128 150.884C158.583 153.612 166.079 153.228 169.772 150.085C171.347 148.717 171.999 147.303 171.999 145.212C171.999 143.329 171.756 142.507 170.723 141.093C169.391 139.287 166.674 137.769 158.964 134.598C150.14 130.99 146.337 128.75 142.863 125.191C140.854 123.132 138.951 119.831 138.165 117.075C137.514 114.781 137.352 109.036 137.866 106.715C139.688 98.6263 146.123 92.9813 155.408 91.3059C158.421 90.7679 165.427 90.9715 168.387 91.6671ZM128.228 98.4457L128.281 105.094H106.017V165.133H90.2641V105.094H68V98.5725C68 94.968 68.081 91.9514 68.1903 91.8746C68.2713 91.7708 81.8209 91.7209 98.2497 91.7478L128.147 91.8246L128.228 98.4457Z" fill="url(#paint0_linear)"/>
<path fill-rule="evenodd" clip-rule="evenodd" d="M155.609 22.9787H55.0839C50.58 22.9787 46.9787 26.5799 46.9787 31.0838V224.09C46.9787 228.594 50.5799 232.195 55.0838 232.195H199.838C204.371 232.195 208.032 228.521 208.032 224.046V75.1493L155.609 22.9787ZM155.608 15H55.0839C46.1735 15 39 22.1734 39 31.0838V224.09C39 233 46.1734 240.174 55.0838 240.174H199.838C208.749 240.174 216.011 232.956 216.011 224.045L216.009 75.1493L155.608 15Z" fill="url(#paint1_linear)"/>
<path opacity="0.25" d="M155.608 17V61.2306C155.608 70.141 162.867 77.1605 171.777 77.1605L216.009 77.1493V75.1493L155.608 17Z" fill="#282828"/>
<path d="M155.608 15V59.2306C155.608 68.141 162.867 75.1605 171.777 75.1605L216.009 75.1493L155.608 15Z" fill="url(#paint2_linear)"/>
<defs>
<filter id="filter0_f" x="23.8778" y="0.441412" width="207.255" height="255.418" filterUnits="userSpaceOnUse" color-interpolation-filters="sRGB">
<feFlood flood-opacity="0" result="BackgroundImageFix"/>
<feBlend mode="normal" in="SourceGraphic" in2="BackgroundImageFix" result="shape"/>
<feGaussianBlur stdDeviation="7.5611" result="effect1_foregroundBlur"/>
</filter>
<linearGradient id="paint0_linear" x1="68" y1="91" x2="68" y2="166" gradientUnits="userSpaceOnUse">
<stop offset="1e-07" stop-color="#458588"/>
<stop offset="0.5" stop-color="#83a598"/>
<stop offset="1" stop-color="#458588"/>
</linearGradient>
<linearGradient id="paint1_linear" x1="39" y1="15" x2="39" y2="240.174" gradientUnits="userSpaceOnUse">
<stop offset="1e-07" stop-color="#458588"/>
<stop offset="0.5" stop-color="#83a598"/>
<stop offset="1" stop-color="#458588"/>
</linearGradient>
<linearGradient id="paint2_linear" x1="155.608" y1="15" x2="155.608" y2="75.1605" gradientUnits="userSpaceOnUse">
<stop offset="1e-07" stop-color="#458588"/>
<stop offset="0.5" stop-color="#83a598"/>
<stop offset="1" stop-color="#458588"/>
</linearGradient>
</defs>
</svg>

<svg width="256" height="256" fill="none" version="1.1" viewBox="0 0 256 256" xmlns="http://www.w3.org/2000/svg">
  <path d="m55.08 15h100.5l60.4 60.15 2e-3 148.9c0 8.911-7.262 16.13-16.17 16.13h-144.8c-8.91 0-16.08-7.174-16.08-16.08v-193c0-8.91 7.173-16.08 16.08-16.08h1e-4z" fill="#ebdbb2"/>
  <path d="m168.4 91.67c4.345 1.034 7.657 2.863 10.7 5.852 1.575 1.595 3.911 4.507 4.102 5.203 0.052 0.207-7.387 4.945-11.89 7.601-0.162 0.103-0.818-0.565-1.551-1.599-2.198-3.036-4.507-4.354-8.034-4.584-5.187-0.335-8.528 2.24-8.504 6.544 0 1.264 0.195 2.01 0.737 3.04 1.138 2.244 3.256 3.581 9.909 6.313 12.25 5 17.49 8.301 20.75 12.99 3.64 5.226 4.454 13.58 1.984 19.79-2.713 6.748-9.451 11.34-18.93 12.86-2.932 0.488-9.881 0.411-13.04-0.131-6.868-1.16-13.38-4.381-17.4-8.608-1.575-1.648-4.641-5.952-4.455-6.26 0.081-0.103 0.79-0.514 1.58-0.953 0.757-0.411 3.636-1.982 6.353-3.477l4.912-2.706 1.033 1.441c1.438 2.087 4.588 4.946 6.491 5.903 5.455 2.728 12.95 2.344 16.64-0.799 1.575-1.368 2.227-2.782 2.227-4.873 0-1.883-0.243-2.705-1.276-4.119-1.332-1.806-4.049-3.324-11.76-6.495-8.824-3.608-12.63-5.848-16.1-9.407-2.009-2.059-3.912-5.36-4.698-8.116-0.651-2.294-0.813-8.039-0.299-10.36 1.822-8.089 8.257-13.73 17.54-15.41 3.013-0.538 10.02-0.3344 12.98 0.3612zm-40.16 6.779 0.053 6.648h-22.26v60.04h-15.75v-60.04h-22.26v-6.522c0-3.604 0.081-6.621 0.1903-6.698 0.081-0.1038 13.63-0.1537 30.06-0.1268l29.9 0.0768 0.081 6.621z" fill="url(#paint0_linear)"/>
  <path d="m155.6 22.98h-100.5c-4.504 0-8.105 3.601-8.105 8.105v193c0 4.504 3.601 8.105 8.105 8.105h144.8c4.533 0 8.194-3.674 8.194-8.149v-148.9l-52.42-52.17zm-1e-3 -7.979h-100.5c-8.91 0-16.08 7.173-16.08 16.08v193c0 8.91 7.173 16.08 16.08 16.08h144.8c8.911 0 16.17-7.218 16.17-16.13l-2e-3 -148.9-60.4-60.15z" clip-rule="evenodd" fill="url(#paint1_linear)" fill-rule="evenodd"/>
  <path d="m155.6 17v44.23c0 8.91 7.259 15.93 16.17 15.93l44.23-0.0112v-2l-60.4-58.15z" fill="#282828" opacity=".25"/>
  <path d="m155.6 15v44.23c0 8.91 7.259 15.93 16.17 15.93l44.23-0.0112-60.4-60.15z" fill="url(#paint2_linear)"/>
  <defs>
    <linearGradient id="paint0_linear" x1="68" x2="68" y1="91" y2="166" gradientUnits="userSpaceOnUse">
      <stop stop-color="#458588" offset="1e-7"/>
      <stop stop-color="#83a598" offset=".5"/>
      <stop stop-color="#458588" offset="1"/>
    </linearGradient>
    <linearGradient id="paint1_linear" x1="39" x2="39" y1="15" y2="240.2" gradientUnits="userSpaceOnUse">
      <stop stop-color="#458588" offset="1e-7"/>
      <stop stop-color="#83a598" offset=".5"/>
      <stop stop-color="#458588" offset="1"/>
    </linearGradient>
    <linearGradient id="paint2_linear" x1="155.6" x2="155.6" y1="15" y2="75.16" gradientUnits="userSpaceOnUse">
      <stop stop-color="#458588" offset="1e-7"/>
      <stop stop-color="#83a598" offset=".5"/>
      <stop stop-color="#458588" offset="1"/>
    </linearGradient>
  </defs>
</svg>
